X: 1
T: Abide With Me v.1
P: piffero primo a0148
O: traditional Welsh
%R: march
F: http://ancients.sudburymuster.org/mus/col/pdf/hymnsF.pdf
Z: 2020 John Chambers <jc:trillian.mit.edu>
M: 4/4
L: 1/4
K: G
|:\
B2 BA | G2 d2 | ed dc  | B4 |\
B2 cd | e2 d2 | cA B^c | d4 |
B2 BA | G2 d2 | dc cB  | A4 |\
A2 Bc | BA Gc | B2 A2  | G4 :|


